svg/SJJB-OpenStreetMapIcons/tourist/information.svg

<?xml version="1.0" encoding="UTF-8" standalone="no"?>
<!-- Created with Inkscape (http://www.inkscape.org/) -->
<svg
   xmlns:dc="http://purl.org/dc/elements/1.1/"
   xmlns:cc="http://creativecommons.org/ns#"
   xmlns:rdf="http://www.w3.org/1999/02/22-rdf-syntax-ns#"
   xmlns:svg="http://www.w3.org/2000/svg"
   xmlns="http://www.w3.org/2000/svg"
   xmlns:sodipodi="http://sodipodi.sourceforge.net/DTD/sodipodi-0.dtd"
   xmlns:inkscape="http://www.inkscape.org/namespaces/inkscape"
   version="1.0"
   width="580"
   height="580"
   id="svg2"
   sodipodi:version="0.32"
   inkscape:version="0.46"
   sodipodi:docname="information.svg"
   inkscape:output_extension="org.inkscape.output.svg.inkscape">
  <metadata
     id="metadata10">
    <rdf:RDF>
      <cc:Work
         rdf:about="">
        <dc:format>image/svg+xml</dc:format>
        <dc:type
           rdf:resource="http://purl.org/dc/dcmitype/StillImage" />
			  <cc:license
           rdf:resource="http://web.resource.org/cc/PublicDomain" />
        <dc:language>en</dc:language>
      </cc:Work>
    </rdf:RDF>
  </metadata>
  <sodipodi:namedview
     inkscape:window-height="941"
     inkscape:window-width="1280"
     inkscape:pageshadow="2"
     inkscape:pageopacity="0.0"
     guidetolerance="10.0"
     gridtolerance="10.0"
     objecttolerance="10.0"
     borderopacity="1.0"
     bordercolor="#666666"
     pagecolor="#ffffff"
     id="base"
     showgrid="false"
     inkscape:zoom="0.35355339"
     inkscape:cx="1208.418"
     inkscape:cy="207.09985"
     inkscape:window-x="1276"
     inkscape:window-y="-4"
     inkscape:current-layer="svg2" />
  <defs
     id="defs4">
    <inkscape:perspective
       sodipodi:type="inkscape:persp3d"
       inkscape:vp_x="0 : 290 : 1"
       inkscape:vp_y="0 : 1000 : 0"
       inkscape:vp_z="580 : 290 : 1"
       inkscape:persp3d-origin="290 : 193.33333 : 1"
       id="perspective12" />
    <style
       type="text/css"
       id="style6">
   
    .fil0 {fill:#EF7900}
   
  </style>
    <inkscape:perspective
       id="perspective6807"
       inkscape:persp3d-origin="29.116032 : 19.410688 : 1"
       inkscape:vp_z="58.232063 : 29.116032 : 1"
       inkscape:vp_y="0 : 1000 : 0"
       inkscape:vp_x="0 : 29.116032 : 1"
       sodipodi:type="inkscape:persp3d" />
  </defs>
  <g
     id="g1327">
    <path
       d="M 66.275,1.768 C 24.94,1.768 1.704,23.139 1.704,66.804 L 1.704,516.927 C 1.704,557.771 22.598,579.156 63.896,579.156 L 515.92,579.156 C 557.227,579.156 578.149,558.84 578.149,516.927 L 578.149,66.804 C 578.149,24.203 557.227,1.768 514.627,1.768 C 514.624,1.768 66.133,1.625 66.275,1.768 z"
       style="fill:#111111;stroke:#eeeeee;stroke-width:3.40799999"
       id="path1329" />
  </g>
  <path
     transform="matrix(12.872654,0,0,12.872654,4041.8845,-4307.9258)"
     style="font-size:48px;font-style:normal;font-variant:normal;font-weight:bold;font-stretch:normal;text-align:start;line-height:100%;writing-mode:lr-tb;text-anchor:start;fill:#ffffff;fill-opacity:1;stroke:none;stroke-width:1px;stroke-linecap:butt;stroke-linejoin:miter;stroke-opacity:1;font-family:Garamond;-inkscape-font-specification:Garamond Bold"
     d="M -293.96875,344.2415 C -293.96875,343.39778 -293.69532,342.70638 -293.14844,342.16728 C -292.60157,341.62825 -291.89844,341.35872 -291.03906,341.35869 C -290.1172,341.35872 -289.35157,341.64388 -288.74219,342.21416 C -288.13282,342.7845 -287.82814,343.42903 -287.82812,344.14775 C -287.82814,344.67903 -287.94923,345.21028 -288.19141,345.7415 C -288.4336,346.27278 -288.81642,346.69856 -289.33984,347.01885 C -289.86329,347.33918 -290.39845,347.49934 -290.94531,347.49932 C -291.69532,347.49934 -292.38672,347.17903 -293.01953,346.53838 C -293.65235,345.89778 -293.96875,345.13216 -293.96875,344.2415 L -293.96875,344.2415 z M -297.25,372.20244 L -297.29688,370.679 L -294.64844,370.32744 C -294.25782,370.21807 -293.98829,370.05791 -293.83984,369.84697 C -293.69141,369.63604 -293.61719,369.16338 -293.61719,368.429 L -293.61719,368.17119 C -293.61719,367.9837 -293.60547,367.64385 -293.58203,367.15166 C -293.5586,366.65948 -293.54688,366.22588 -293.54688,365.85088 C -293.54688,365.55401 -293.57032,364.9837 -293.61719,364.13994 L -293.59375,362.96807 L -293.61719,361.8665 L -293.57031,358.04619 C -293.57032,357.56183 -293.61719,357.06183 -293.71094,356.54619 C -293.88282,356.31183 -294.19532,356.10871 -294.64844,355.93682 C -295.10157,355.76496 -295.89063,355.63996 -297.01562,355.56182 L -297.01562,354.24932 C -295.40625,354.15558 -293.99219,353.81965 -292.77344,353.2415 C -291.94532,352.86652 -291.04688,352.20246 -290.07812,351.24932 L -288.50781,351.24932 C -288.44532,353.18683 -288.41407,355.70246 -288.41406,358.79619 L -288.57812,368.35869 C -288.57813,369.01494 -288.54688,369.60869 -288.48438,370.13994 C -288.00001,370.31182 -287.21095,370.48369 -286.11719,370.65557 C -285.69532,370.71807 -285.35939,370.79619 -285.10938,370.88994 L -285.13281,372.179 C -285.5547,372.19463 -285.8672,372.20244 -286.07031,372.20244 C -286.3047,372.20244 -286.66407,372.18682 -287.14844,372.15557 C -288.7422,372.07744 -290.87501,372.03838 -293.54688,372.03838 C -294.3125,372.03838 -295.05469,372.06572 -295.77344,372.12041 C -296.49219,372.1751 -296.98438,372.20244 -297.25,372.20244 L -297.25,372.20244 z"
     id="flowRoot6828" />
</svg>

<svg xmlns="http://www.w3.org/2000/svg" viewBox="0 0 580 580"><path d="m66.28 1.768c-41.34 0-64.57 21.371-64.57 65.04v450.12c0 40.844 20.894 62.23 62.19 62.23h452.02c41.31 0 62.23-20.316 62.23-62.23v-450.12c0-42.601-20.922-65.04-63.52-65.04-.003 0-448.49-.143-448.35 0z" fill="#111" stroke="#eee" stroke-width="3.408"/><path transform="matrix(12.87265 0 0 12.87265 4041.88-4307.93)" d="m-293.97 344.24c0-.844.273-1.535.82-2.074.547-.539 1.25-.809 2.109-.809.922 0 1.687.285 2.297.855.609.57.914 1.215.914 1.934 0 .531-.121 1.063-.363 1.594-.242.531-.625.957-1.148 1.277-.523.32-1.059.48-1.605.48-.75 0-1.441-.32-2.074-.961-.633-.641-.949-1.406-.949-2.297m-3.281 27.961l-.047-1.523 2.648-.352c.391-.109.66-.27.809-.48.148-.211.223-.684.223-1.418v-.258c0-.187.012-.527.035-1.02.023-.492.035-.926.035-1.301 0-.297-.023-.867-.07-1.711l.023-1.172-.023-1.102.047-3.82c0-.484-.047-.984-.141-1.5-.172-.234-.484-.437-.938-.609-.453-.172-1.242-.297-2.367-.375v-1.313c1.609-.094 3.02-.43 4.242-1.01.828-.375 1.727-1.039 2.695-1.992h1.57c.062 1.938.094 4.453.094 7.547l-.164 9.563c0 .656.031 1.25.094 1.781.484.172 1.273.344 2.367.516.422.063.758.141 1.01.234l-.023 1.289c-.422.016-.734.023-.938.023-.234 0-.594-.016-1.078-.047-1.594-.078-3.727-.117-6.398-.117-.766 0-1.508.027-2.227.082-.719.055-1.211.082-1.477.082" fill="#fff"/></svg>
